X:5187
T:Polska efter farfadern
O:england
C:Herman Axelsson, Sm\aa{}land
M:3/4
L:1/8
K:C
c2 G>E G>c|B2 A>F D2|B2 B>A F>D|c2 G>E C2|\
c2 G>E G>c|B2 A>F D2|A2 A>F D>B,|D2C4|
c2 G>E G>c|B2 A>F D2|B,2 D>B, D>F|A2 G>E (3CEG|\
c2 G>E G>c|B2 A>F D2|B,2 D>B, F>B,|D2C4|]
c2 e>c G>E|G2F2F2|F2 d>c B>F|A2G2G2|\
c2 e>c G>E|G2F2F2|B2 B>A F>D|C2 c2 E>F|
EE e>c G>E|G2F2F2|F2 d>c B>F|A2G2G2|\
c2 e>c G>E|G2F2F2|BB B>A B>d|d2c2 EF|]
G2 GE GE|F2 D4|B2 B>A B>d|c2 ec GE|\
G2 GA EG|F2 D4|B2 B>A B>d|c2c4|]


